X: 52
T:Shepherd's Hey - Stretton on Fosse
M:4/4
L:1/8
N:Tune as played for Grand Union Morris
Q:150
S:OY (AB)4
K:G
"A" BcdB c2 c2 |  BcdB A4 |  BcdB c2 Bc |1 d2 D2 G4 |2 d2 D2 G3 ||
"B" B | d2 B2 c4 |B2 G2 A4 |  BcdB c2 Bc | d2 D2 G3 :||
